X:1
T:Title
%%score { ( 1 4 ) | ( 2 3 ) }
L:1/8
M:4/4
K:E
V:1 treble nm="Grand Piano"
V:4 treble 
V:2 bass 
V:3 bass 
V:1
 z4 z2[Q:1/4=100] [GB]2 | [Ge]3 [Ge] [Bd]2 [Bd]2 | [Ac]2 [Ac]2 [GB]2 [GB]2 | ccBB A2 G2 | %4
[M:3/4] [B,DF]6 |[M:1/4] [EG]B |[M:4/4] c3 c c2 [Ad]2 | [Ge]3 [GB] [GB]2 c2 | BBcB [DA]2 D2 | %9
[M:3/4] E6 |[M:1/4] B2 |[M:4/4] G3 G G4 | G2 [DF]>E [DF]4 | %13
 [DF][DF][DF][DF] [DF][B,DF][B,EG][CE^A] | B6 z2 | [EGB][EGB][B,FA][B,FA] [B,EG]2 [B,DF]2 | %16
 B,2- [B,-DF]2 [B,EG]2 [CEA]2 | [B,EG][B,EG][A,DF][A,DF] [G,E]2 [A,DF]2 |[M:3/4] [G,B,E]6 |] %19
V:2
 z4 z2 [E,B,]2 | [E,B,]3 [E,B,] [F,B,]2 [G,E]2 | [A,E]2 [A,E]2 [E,E]2 [E,E]2 | %3
 [A,EA][A,EA][K:bass][G,E][G,B,E] [F,B,D]2 [E,B,E]2 |[M:3/4] B,,6 |[M:1/4] z[K:treble] G | %6
[M:4/4] [A,EA]3 [A,EA] [A,EA]2[K:bass] [F,B,]2 | [E,B,]3 [E,E] [E,E]2 [E,A,E]2 | %8
 [E,G,E][E,G,E][E,A,E][E,G,E] [B,,B,]2 [B,,A,B,]2 |[M:3/4] [E,G,B,]6 |[M:1/4] [E,G,E]2 | %11
[M:4/4] [E,B,E]3 [E,B,E] [E,B,E]4 | [E,B,E]2 [B,,B,]>[C,^A,] [B,,B,]4 | %13
 [B,,B,][B,,B,][B,,B,][B,,B,] [B,,B,]F,F,F, | z2 D4 z2 | E,E,E,E, E,2 F,2 | G,2 F,2 E,2 A,,2 | %17
 B,,B,,B,,B,, B,,2 B,,2 |[M:3/4] E,6 |] %19
V:3
 x8 | x8 | x8 | x2[K:bass] x6 |[M:3/4] x6 |[M:1/4] E,2[K:treble] |[M:4/4] x6[K:bass] x2 | x8 | x8 | %9
[M:3/4] x6 |[M:1/4] x2 |[M:4/4] x8 | x8 | x8 | B,,6 z2 | x8 | x8 | x8 |[M:3/4] x6 |] %19
V:4
 x8 | x8 | x8 | x8 |[M:3/4] x6 |[M:1/4] x2 |[M:4/4] x8 | x8 | x8 |[M:3/4] x6 |[M:1/4] x2 | %11
[M:4/4] x8 | x8 | x8 | [B,D]2 F4 z2 | x8 | E2 z2 z4 | x8 |[M:3/4] x6 |] %19

